X:1
T:Title
%%score ( 1 2 ) { 3 | 4 }
L:1/8
Q:1/4=100
M:4/4
K:D
V:1 treble nm="Church Organ, Soprano"
V:2 treble 
V:3 treble nm="Church Organ, Bass"
V:4 bass 
V:1
 [FA]2 [FA]2 [DG]>[DG] [GB]>[GB] | [FA]4 [DF]4 | [EG]2 [CE]2 [EG]>[GB] [GA]>[E^G] | [FA]4 [Fd]4 | %4
w: 1.~Can~ the~ spir it~ of~ a~|mor tal~|Live~ be yond~ the~ reach~ of~|trou ble?~|
 [FA]2 [Ad]2 [Gd]>[Ge] [Gd]>[GB] | [FA]4 [DF]4 | [FA]2 [FA]2 [GA]>[GA] [GB]>[Gc] | %7
w: Know ing~ not~ a~ pain ful~|strug gle,~|Ev er~ joy ful~ in~ the~|
 [Fd]6 [FA]>[=F^G] | [FA]4- [FA]>[GB] [FA]>[EG] | [DF]6 [FA]>[FA] | %10
w: Lord?~ * *|||
 [EG]4- [EG]>[GB] (3[FA][GB][Gc] | [Fd]6 [Fd]>[GB] | [FA]>[=F^G] [^FA]>[=GB] [FA]2 [FA]>[FA] | %13
w: |||
 [Fd]>[Ge] [Af]>[Ae] [Ad]2 [Ad]>[GB] | [FA]2 [DF]2 [CA]2 [GB]>[Gc] | d6 z2 |] %16
w: |||
V:2
 x8 | x8 | x8 | x8 | x8 | x8 | x8 | x8 | x8 | x8 | x8 | x8 | x8 | x8 | x8 | F2 G>G F2 z2 |] %16
V:3
 D2 D2 B,>B, D>D | D4[K:bass] A,4 | A,2 A,2 C>C[K:treble] C>C | D4 A,4 | %4
 D2 D2[K:bass] B,>B, B,>B, | D4 A,4 | D2 D2 C>C A,>A, | A,6 z2 | z z/ D/ D>D D2 z2 | %9
 z2[K:bass] A,>A, A,2 z2 | z z/ A,/ A,>A, A,2 z2 | z2 A,>A, A,2 A,>D | D>D D>D D2 D>D | %13
 A,>A, D>C D2 D>D | D2[K:bass] A,2 A,2 A,>A, | A,2 B,>B, A,2 z2 |] %16
V:4
 D,2 D,2 G,>G, G,>G, | D,4 D,4 | A,,2 A,,2 A,,>A,, A,,>A,, | D,4 D,4 | D,2 F,2 G,>G, G,>G, | %5
 D,4 D,4 | A,2 A,2 A,>A, A,,>A,, | D,6 z2 | z z/ D,/ D,>D, D,2 z2 | z2 D,>D, D,2 z2 | %10
 z z/ A,,/ A,,>A,, A,,2 z2 | z2 D,>D, D,2 D,>D, | D,>D, D,>D, D,2 D,>D, | D,>D, D,>E, F,2 F,>G, | %14
 A,2 z2 A,,2 A,,>A,, | D,6 z2 |] %16

